X:1
T:The Great World Task
T:The Great World Task
T:Ernest Orlando Sellers
T:Anna Belle Russell, 1922
T:Public Domain Courtesy of the Cyber Hymnal™
T:Public Domain Courtesy of the Cyber Hymnal™
C:Ernest Orlando Sellers
Z:Public Domain
Z:Courtesy of the Cyber Hymnal™
%%score ( 1 2 ) ( 3 4 )
L:1/8
Q:1/4=132
M:2/2
K:Eb
V:1 treble 
V:2 treble 
V:3 bass 
V:4 bass 
V:1
 [GB]2 | [Ge]2 [Ge]2 [Ge]2 [GB]2 | [Ac]2 [GB]2 [EG]2 E[DF] | [EG]4 [EB]4 | [DF]6 [AB]2 | %5
w: 1.~A|place there is for|each to fill In the|great world|task; De-|
w: 2.~Pre-|pare, pre- pare your|best to do In the|great world|task; Be|
w: 3.~Re-|joice, re- joice, to|have a part In the|great world|task; Lift|
 [Ge]2 [Ge]2 [Gd]2 [Ac]2 | [GB]2 [Ac]2 [GB]2 [GB][Gc] | [Fd]4 [Ec]4 | [DB]6 z2 || %9
w: mand- ing heart and|hand and will In the|great world|task.|
w: tal- ents ma- ny,|great or few, For the|great world|task.|
w: high the cross wher-|e’er thou art, In the|great world|task.|
"^Refrain" [EB]4 .E2 z2 | [Ge]4 .[GB]2 z2 | [Ac]2 [Ad]2 [Ae]2 [Ac]2 | [GB]4 [EG]4 | %13
w: ||||
w: Go ye!|Go ye!|Go ye, saith the|Mas- ter:|
w: ||||
 [FA]2 [EA]2 [DA]2 [Dc]2 | [EB]2 [DB]2 [EB]2 [EG]2 | [DF]2 [Fd]2 [Fd]2 [DB]2 | [Ec]4 [DB]4 | %17
w: ||||
w: “In- to all the|world to ev- ery|crea- ture Preach My|Gos- pel.”|
w: ||||
 [EB]4 .[EG]2 z2 | [Ge]4 .[GB]2 z2 | [Ac]2 [Ad]2 [Ae]2 [Ac]2 | [GB]4 [EG]4 | E2 F2 G2 A2 | %22
w: |||||
w: Go ye!|Go ye!|Go ye, saith the|Mas- ter:|“In- to all the|
w: |||||
 B4 [EG]2 [EA]2 | .[Ec]2 .[Ec]2 .[Ad]2 .[AB]2 | !fermata![Ge]6 |] %25
w: |||
w: world Let My|ban- ner be un-|furled.”|
w: |||
V:2
 x2 | x8 | x6 E x | x8 | x8 | x8 | x8 | x8 | x8 || x8 | x8 | x8 | x8 | x8 | x8 | x8 | x8 | x8 | %18
 x8 | x8 | x8 | E2 F2 G2 A2 | B4 x4 | x8 | x6 |] %25
V:3
 [E,E]2 | [E,B,]2 [E,B,]2 [E,B,]2 [E,E]2 | [E,E]2 [E,E]2 [E,B,]2 [G,,B,][B,,B,] | %3
 [E,B,]4 [G,,B,]4 | [B,,B,]6 [D,B,]2 | [E,B,]2 [E,B,]2 [E,C]2 [E,D]2 | %6
 [E,E]2 [E,E]2 [E,E]2 [E,B,][E,B,] | [F,B,]4 [F,=A,]4 | (B,2 A,4) z2 || [E,G,]4 [E,B,]2 z2 | %10
 [E,B,]4 [E,E]2 z2 | [A,E]2 [A,D]2 [A,C]2 [A,E]2 | [E,E]4 [E,B,]4 | %13
 [D,B,]2 [C,B,]2 [B,,B,]2 [A,B,]2 | [G,B,]2 [F,A,]2 [E,G,]2 [E,B,]2 | %15
 [F,B,]2 [F,B,]2 [F,B,]2 [F,B,]2 | [F,=A,]4 (B,2 _A,2) | [E,G,]4 [E,B,]2 z2 | [E,B,]4 [E,E]2 z2 | %19
 [A,E]2 [A,D]2 [A,C]2 [A,E]2 | [E,E]4 [E,B,]4 | E,2 F,2 G,2 A,2 | B,4 [E,B,]2 [G,,B,]2 | %23
 .[A,,A,]2 .[A,,A,]2 .[B,,F,]2 .[D,B,]2 | !fermata![E,B,]6 |] %25
V:4
 x2 | x8 | x8 | x8 | x8 | x8 | x8 | x8 | B,,6 x2 || x8 | x8 | x8 | x8 | x8 | x8 | x8 | x4 B,,4 | %17
 x8 | x8 | x8 | x8 | E,2 F,2 G,2 A,2 | B,4 x4 | x8 | x6 |] %25

